Newaita-dark/apps/64/toggldesktop.svg

<svg height="64" viewBox="0 0 64 64" width="64" xmlns="http://www.w3.org/2000/svg" xmlns:xlink="http://www.w3.org/1999/xlink"><linearGradient id="a"><stop offset="0" stop-opacity=".313726"/><stop offset=".222222" stop-opacity=".27451"/><stop offset="1" stop-opacity="0"/></linearGradient><radialGradient id="b" cx="450.908936" cy="189.579361" gradientTransform="matrix(.00000035 -.156265 -.281277 -.0000002 89.046304 127.190659)" gradientUnits="userSpaceOnUse" r="21.166656" xlink:href="#a"/><radialGradient id="c" cx="450.908936" cy="189.579361" gradientTransform="matrix(-.00000035 .156265 .281277 .0000002 -25.540237 -15.054964)" gradientUnits="userSpaceOnUse" r="21.166656" xlink:href="#a"/><radialGradient id="d" cx="450.908936" cy="189.579361" gradientTransform="matrix(-.00000035 -.156265 .281277 -.0000002 -25.540237 127.190659)" gradientUnits="userSpaceOnUse" r="21.166656" xlink:href="#a"/><radialGradient id="e" cx="450.908936" cy="189.579361" gradientTransform="matrix(.00000035 .156265 -.281277 .0000002 89.0463 -15.054965)" gradientUnits="userSpaceOnUse" r="21.166656" xlink:href="#a"/><linearGradient id="f" gradientTransform="matrix(.0267201 0 0 .125012 24.930772 26.877567)" gradientUnits="userSpaceOnUse" x1="255.323059" x2="255.323044" y1="233.5" y2="254.666656"><stop offset="0" stop-opacity=".27451"/><stop offset="1" stop-opacity="0"/></linearGradient><linearGradient id="g" gradientUnits="userSpaceOnUse" x1="254" x2="254" y1="-168.666672" y2="233.5"><stop offset="0" stop-color="#ef5350"/><stop offset="1" stop-color="#f44336"/></linearGradient><linearGradient id="h" gradientUnits="userSpaceOnUse" x1="31.753056" x2="31.753056" y1="56.06789790428" y2="5.79222438278"><stop offset="0" stop-color="#bdbdbd"/><stop offset="1" stop-color="#e0e0e0"/></linearGradient><path d="m36.382812 56.066406h5.292969v-2.644531h-5.292969zm0 0" fill="url(#b)"/><path d="m27.121094 56.066406h-5.289063v2.648438h5.289063zm0 0" fill="url(#c)"/><path d="m27.121094 56.066406h-5.289063v-2.644531h5.289063zm0 0" fill="url(#d)"/><path d="m36.382812 56.066406h5.292969v2.648438h-5.292969zm0 0" fill="url(#e)"/><path d="m27.121094 55.40625h9.261718v3.308594h-9.261718zm0 0" fill="url(#f)"/><path d="m254.006994-168.660675c111.051895 0 201.074548 90.022653 201.074548 201.074548s-90.022653 201.074548-201.074548 201.074548c-111.051896 0-201.105796-90.022653-201.105796-201.074548s90.0539-201.074548 201.105796-201.074548zm0 0" fill="url(#g)" stroke="#333" stroke-linecap="round" stroke-width="3" transform="matrix(.125012 0 0 .125012 0 26.877566)"/><path d="m31.753906 56.066406c-13.925781 0-25.140625-11.210937-25.140625-25.136718 0-.082032.003907-.164063.003907-.246094.128906 13.8125 11.292968 24.890625 25.136718 24.890625s25.003906-11.078125 25.136719-24.890625v.246094c0 13.925781-11.210937 25.136718-25.136719 25.136718zm0 0" fill-opacity=".196078"/><path d="m31.753906 5.792969c-13.925781 0-25.140625 11.210937-25.140625 25.136719 0 .082031.003907.164062.003907.246093.128906-13.8125 11.292968-24.890625 25.136718-24.890625s25.003906 11.078125 25.136719 24.890625c0-.082031 0-.164062 0-.246093 0-13.925782-11.210937-25.136719-25.136719-25.136719zm0 0" fill="#fff" fill-opacity=".392157"/><path d="m31.753906 5.605469c-14.027344 0-25.328125 11.296875-25.328125 25.324219 0 14.027343 11.300781 25.324218 25.328125 25.324218s25.324219-11.296875 25.324219-25.324218c0-14.027344-11.296875-25.324219-25.324219-25.324219zm0 .375c13.824219 0 24.949219 11.125 24.949219 24.949219 0 13.824218-11.125 24.949218-24.949219 24.949218-13.828125 0-24.953125-11.125-24.953125-24.949218 0-13.824219 11.125-24.949219 24.953125-24.949219zm0 0" fill="#212121"/><path d="m31.753906 16.375c-.734375 0-1.324218.589844-1.324218 1.324219v13.230469c0 .734374.589843 1.324218 1.324218 1.324218.730469 0 1.320313-.589844 1.320313-1.324218v-13.230469c0-.734375-.589844-1.324219-1.320313-1.324219zm-2.648437 2.941406c-5.3125 1.195313-9.261719 5.925782-9.261719 11.613282 0 6.597656 5.3125 11.90625 11.910156 11.90625s11.90625-5.308594 11.90625-11.90625c0-5.6875-3.945312-10.417969-9.261718-11.613282v2.734375c3.835937 1.132813 6.617187 4.667969 6.617187 8.878907 0 5.132812-4.132813 9.261718-9.261719 9.261718-5.132812 0-9.261718-4.128906-9.261718-9.261718 0-4.210938 2.78125-7.746094 6.613281-8.878907zm0 0" fill="url(#h)"/><path d="m31.753906 16.375c-.734375 0-1.324218.589844-1.324218 1.324219v.660156c0-.730469.589843-1.320313 1.324218-1.320313.730469 0 1.320313.589844 1.320313 1.320313v-.660156c0-.734375-.589844-1.324219-1.320313-1.324219zm-2.648437 2.941406c-5.3125 1.195313-9.261719 5.925782-9.261719 11.613282 0 .113281.003906.226562.007812.335937.144532-5.539063 4.042969-10.113281 9.253907-11.289063zm5.292969 0v.660156c5.214843 1.175782 9.109374 5.75 9.257812 11.289063.003906-.109375.003906-.222656.003906-.335937 0-5.6875-3.945312-10.417969-9.261718-11.613282zm-11.902344 11.941406c-.003906.109376-.003906.222657-.003906.332032 0 5.132812 4.128906 9.261718 9.261718 9.261718 5.128906 0 9.261719-4.128906 9.261719-9.261718 0-.109375-.003906-.222656-.007813-.332032-.171874 4.976563-4.234374 8.933594-9.253906 8.933594-5.023437 0-9.085937-3.957031-9.257812-8.933594zm0 0" fill="#fff"/><path d="m29.105469 22.195312c-3.632813 1.074219-6.324219 4.308594-6.589844 8.234376-.003906-.050782-.007813-.097657-.011719-.148438-.007812.164062-.011718.332031-.011718.496094 0 .21875.007812.429687.023437.644531.265625-3.925781 2.957031-7.160156 6.589844-8.234375zm5.292969 0v.992188c3.636718 1.074219 6.324218 4.308594 6.59375 8.234375.015624-.214844.023437-.425781.023437-.644531 0-.164063-.007813-.332032-.015625-.496094 0 .050781-.003906.097656-.007812.148438-.269532-3.925782-2.957032-7.160157-6.59375-8.234376zm-3.96875 8.878907v.992187c0 .734375.589843 1.324219 1.324218 1.324219.730469 0 1.320313-.589844 1.320313-1.324219v-.992187c0 .734375-.589844 1.324219-1.320313 1.324219-.734375 0-1.324218-.589844-1.324218-1.324219zm-10.574219.503906c-.007813.160156-.011719.324219-.011719.488281 0 6.597656 5.3125 11.90625 11.910156 11.90625s11.90625-5.308594 11.90625-11.90625c0-.164062-.003906-.328125-.011718-.488281-.261719 6.359375-5.46875 11.402344-11.894532 11.402344-6.429687 0-11.636718-5.042969-11.898437-11.402344zm0 0" fill-opacity=".235294"/><path d="m960.026483 495.070859c-22.202606 0-40.035549 17.832944-40.035549 40.035549v400.001193c0 22.202606 17.832943 40.035549 40.035549 40.035549 22.084506 0 39.91745-17.832943 39.91745-40.035549v-400.001193c0-22.202605-17.832944-40.035549-39.91745-40.035549zm-80.071098 88.928521c-160.614592 36.138283-280.012645 179.156129-280.012645 351.108221 0 199.469151 160.614592 359.965644 360.083743 359.965644s359.965644-160.496493 359.965644-359.965644c0-171.952092-119.279955-314.969938-280.012645-351.108221v82.669275c115.973183 34.2487 200.059646 141.128262 200.059646 268.438946 0 155.18204-124.948705 280.012645-280.012645 280.012645-155.18204 0-280.012645-124.830605-280.012645-280.012645 0-127.310684 84.086463-234.190246 199.941547-268.438946zm0 0" fill="none" stroke="#212121" stroke-linecap="round" stroke-linejoin="round" stroke-width="11.338583" transform="scale(.0330761)"/></svg>

<?xml version="1.0" encoding="UTF-8"?>
<svg xmlns="http://www.w3.org/2000/svg" xmlns:xlink="http://www.w3.org/1999/xlink" width="64px" height="64px" viewBox="0 0 64 64" version="1.1">
<defs>
<radialGradient id="radial0" gradientUnits="userSpaceOnUse" cx="450.908936" cy="189.579361" fx="450.908936" fy="189.579361" r="21.166656" gradientTransform="matrix(0.000000348341,-0.156265,-0.281277,-0.000000203077,89.046304,127.190659)">
<stop offset="0" style="stop-color:rgb(0%,0%,0%);stop-opacity:0.313726;"/>
<stop offset="0.222222" style="stop-color:rgb(0%,0%,0%);stop-opacity:0.27451;"/>
<stop offset="1" style="stop-color:rgb(0%,0%,0%);stop-opacity:0;"/>
</radialGradient>
<radialGradient id="radial1" gradientUnits="userSpaceOnUse" cx="450.908936" cy="189.579361" fx="450.908936" fy="189.579361" r="21.166656" gradientTransform="matrix(-0.000000348341,0.156265,0.281277,0.000000203077,-25.540237,-15.054964)">
<stop offset="0" style="stop-color:rgb(0%,0%,0%);stop-opacity:0.313726;"/>
<stop offset="0.222222" style="stop-color:rgb(0%,0%,0%);stop-opacity:0.27451;"/>
<stop offset="1" style="stop-color:rgb(0%,0%,0%);stop-opacity:0;"/>
</radialGradient>
<radialGradient id="radial2" gradientUnits="userSpaceOnUse" cx="450.908936" cy="189.579361" fx="450.908936" fy="189.579361" r="21.166656" gradientTransform="matrix(-0.000000348341,-0.156265,0.281277,-0.000000203077,-25.540237,127.190659)">
<stop offset="0" style="stop-color:rgb(0%,0%,0%);stop-opacity:0.313726;"/>
<stop offset="0.222222" style="stop-color:rgb(0%,0%,0%);stop-opacity:0.27451;"/>
<stop offset="1" style="stop-color:rgb(0%,0%,0%);stop-opacity:0;"/>
</radialGradient>
<radialGradient id="radial3" gradientUnits="userSpaceOnUse" cx="450.908936" cy="189.579361" fx="450.908936" fy="189.579361" r="21.166656" gradientTransform="matrix(0.000000348341,0.156265,-0.281277,0.000000203077,89.0463,-15.054965)">
<stop offset="0" style="stop-color:rgb(0%,0%,0%);stop-opacity:0.313726;"/>
<stop offset="0.222222" style="stop-color:rgb(0%,0%,0%);stop-opacity:0.27451;"/>
<stop offset="1" style="stop-color:rgb(0%,0%,0%);stop-opacity:0;"/>
</radialGradient>
<linearGradient id="linear0" gradientUnits="userSpaceOnUse" x1="255.323059" y1="233.5" x2="255.323044" y2="254.666656" gradientTransform="matrix(0.0267201,0,0,0.125012,24.930772,26.877567)">
<stop offset="0" style="stop-color:rgb(0%,0%,0%);stop-opacity:0.27451;"/>
<stop offset="1" style="stop-color:rgb(0%,0%,0%);stop-opacity:0;"/>
</linearGradient>
<linearGradient id="linear1" gradientUnits="userSpaceOnUse" x1="254" y1="-168.666672" x2="254" y2="233.5" >
<stop offset="0" style="stop-color:rgb(93.725491%,32.549021%,31.37255%);stop-opacity:1;"/>
<stop offset="1" style="stop-color:rgb(95.686275%,26.274511%,21.176471%);stop-opacity:1;"/>
</linearGradient>
<linearGradient id="linear2" gradientUnits="userSpaceOnUse" x1="960" y1="1695.118164" x2="960" y2="175.118118" gradientTransform="matrix(0.0330761,0,0,0.0330761,0,0)">
<stop offset="0" style="stop-color:rgb(74.117649%,74.117649%,74.117649%);stop-opacity:1;"/>
<stop offset="1" style="stop-color:rgb(87.843138%,87.843138%,87.843138%);stop-opacity:1;"/>
</linearGradient>
</defs>
<g id="surface1">
<path style=" stroke:none;fill-rule:nonzero;fill:url(#radial0);" d="M 36.382812 56.066406 L 41.675781 56.066406 L 41.675781 53.421875 L 36.382812 53.421875 Z M 36.382812 56.066406 "/>
<path style=" stroke:none;fill-rule:nonzero;fill:url(#radial1);" d="M 27.121094 56.066406 L 21.832031 56.066406 L 21.832031 58.714844 L 27.121094 58.714844 Z M 27.121094 56.066406 "/>
<path style=" stroke:none;fill-rule:nonzero;fill:url(#radial2);" d="M 27.121094 56.066406 L 21.832031 56.066406 L 21.832031 53.421875 L 27.121094 53.421875 Z M 27.121094 56.066406 "/>
<path style=" stroke:none;fill-rule:nonzero;fill:url(#radial3);" d="M 36.382812 56.066406 L 41.675781 56.066406 L 41.675781 58.714844 L 36.382812 58.714844 Z M 36.382812 56.066406 "/>
<path style=" stroke:none;fill-rule:nonzero;fill:url(#linear0);" d="M 27.121094 55.40625 L 36.382812 55.40625 L 36.382812 58.714844 L 27.121094 58.714844 Z M 27.121094 55.40625 "/>
<path style="fill-rule:nonzero;fill:url(#linear1);stroke-width:3;stroke-linecap:round;stroke-linejoin:miter;stroke:rgb(20%,20%,20%);stroke-opacity:1;stroke-miterlimit:4;" d="M 254.006994 -168.660675 C 365.058889 -168.660675 455.081542 -78.638022 455.081542 32.413873 C 455.081542 143.465768 365.058889 233.488421 254.006994 233.488421 C 142.955098 233.488421 52.901198 143.465768 52.901198 32.413873 C 52.901198 -78.638022 142.955098 -168.660675 254.006994 -168.660675 Z M 254.006994 -168.660675 " transform="matrix(0.125012,0,0,0.125012,0,26.877566)"/>
<path style=" stroke:none;fill-rule:nonzero;fill:rgb(0%,0%,0%);fill-opacity:0.196078;" d="M 31.753906 56.066406 C 17.828125 56.066406 6.613281 44.855469 6.613281 30.929688 C 6.613281 30.847656 6.617188 30.765625 6.617188 30.683594 C 6.746094 44.496094 17.910156 55.574219 31.753906 55.574219 C 45.597656 55.574219 56.757812 44.496094 56.890625 30.683594 C 56.890625 30.765625 56.890625 30.847656 56.890625 30.929688 C 56.890625 44.855469 45.679688 56.066406 31.753906 56.066406 Z M 31.753906 56.066406 "/>
<path style=" stroke:none;fill-rule:nonzero;fill:rgb(100%,100%,100%);fill-opacity:0.392157;" d="M 31.753906 5.792969 C 17.828125 5.792969 6.613281 17.003906 6.613281 30.929688 C 6.613281 31.011719 6.617188 31.09375 6.617188 31.175781 C 6.746094 17.363281 17.910156 6.285156 31.753906 6.285156 C 45.597656 6.285156 56.757812 17.363281 56.890625 31.175781 C 56.890625 31.09375 56.890625 31.011719 56.890625 30.929688 C 56.890625 17.003906 45.679688 5.792969 31.753906 5.792969 Z M 31.753906 5.792969 "/>
<path style=" stroke:none;fill-rule:nonzero;fill:rgb(12.941177%,12.941177%,12.941177%);fill-opacity:1;" d="M 31.753906 5.605469 C 17.726562 5.605469 6.425781 16.902344 6.425781 30.929688 C 6.425781 44.957031 17.726562 56.253906 31.753906 56.253906 C 45.78125 56.253906 57.078125 44.957031 57.078125 30.929688 C 57.078125 16.902344 45.78125 5.605469 31.753906 5.605469 Z M 31.753906 5.980469 C 45.578125 5.980469 56.703125 17.105469 56.703125 30.929688 C 56.703125 44.753906 45.578125 55.878906 31.753906 55.878906 C 17.925781 55.878906 6.800781 44.753906 6.800781 30.929688 C 6.800781 17.105469 17.925781 5.980469 31.753906 5.980469 Z M 31.753906 5.980469 "/>
<path style=" stroke:none;fill-rule:nonzero;fill:url(#linear2);" d="M 31.753906 16.375 C 31.019531 16.375 30.429688 16.964844 30.429688 17.699219 L 30.429688 30.929688 C 30.429688 31.664062 31.019531 32.253906 31.753906 32.253906 C 32.484375 32.253906 33.074219 31.664062 33.074219 30.929688 L 33.074219 17.699219 C 33.074219 16.964844 32.484375 16.375 31.753906 16.375 Z M 29.105469 19.316406 C 23.792969 20.511719 19.84375 25.242188 19.84375 30.929688 C 19.84375 37.527344 25.15625 42.835938 31.753906 42.835938 C 38.351562 42.835938 43.660156 37.527344 43.660156 30.929688 C 43.660156 25.242188 39.714844 20.511719 34.398438 19.316406 L 34.398438 22.050781 C 38.234375 23.183594 41.015625 26.71875 41.015625 30.929688 C 41.015625 36.0625 36.882812 40.191406 31.753906 40.191406 C 26.621094 40.191406 22.492188 36.0625 22.492188 30.929688 C 22.492188 26.71875 25.273438 23.183594 29.105469 22.050781 Z M 29.105469 19.316406 "/>
<path style=" stroke:none;fill-rule:nonzero;fill:rgb(100%,100%,100%);fill-opacity:1;" d="M 31.753906 16.375 C 31.019531 16.375 30.429688 16.964844 30.429688 17.699219 L 30.429688 18.359375 C 30.429688 17.628906 31.019531 17.039062 31.753906 17.039062 C 32.484375 17.039062 33.074219 17.628906 33.074219 18.359375 L 33.074219 17.699219 C 33.074219 16.964844 32.484375 16.375 31.753906 16.375 Z M 29.105469 19.316406 C 23.792969 20.511719 19.84375 25.242188 19.84375 30.929688 C 19.84375 31.042969 19.847656 31.15625 19.851562 31.265625 C 19.996094 25.726562 23.894531 21.152344 29.105469 19.976562 Z M 34.398438 19.316406 L 34.398438 19.976562 C 39.613281 21.152344 43.507812 25.726562 43.65625 31.265625 C 43.660156 31.15625 43.660156 31.042969 43.660156 30.929688 C 43.660156 25.242188 39.714844 20.511719 34.398438 19.316406 Z M 22.496094 31.257812 C 22.492188 31.367188 22.492188 31.480469 22.492188 31.589844 C 22.492188 36.722656 26.621094 40.851562 31.753906 40.851562 C 36.882812 40.851562 41.015625 36.722656 41.015625 31.589844 C 41.015625 31.480469 41.011719 31.367188 41.007812 31.257812 C 40.835938 36.234375 36.773438 40.191406 31.753906 40.191406 C 26.730469 40.191406 22.667969 36.234375 22.496094 31.257812 Z M 22.496094 31.257812 "/>
<path style=" stroke:none;fill-rule:nonzero;fill:rgb(0%,0%,0%);fill-opacity:0.235294;" d="M 29.105469 22.195312 C 25.472656 23.269531 22.78125 26.503906 22.515625 30.429688 C 22.511719 30.378906 22.507812 30.332031 22.503906 30.28125 C 22.496094 30.445312 22.492188 30.613281 22.492188 30.777344 C 22.492188 30.996094 22.5 31.207031 22.515625 31.421875 C 22.78125 27.496094 25.472656 24.261719 29.105469 23.1875 Z M 34.398438 22.195312 L 34.398438 23.1875 C 38.035156 24.261719 40.722656 27.496094 40.992188 31.421875 C 41.007812 31.207031 41.015625 30.996094 41.015625 30.777344 C 41.015625 30.613281 41.007812 30.445312 41 30.28125 C 41 30.332031 40.996094 30.378906 40.992188 30.429688 C 40.722656 26.503906 38.035156 23.269531 34.398438 22.195312 Z M 30.429688 31.074219 L 30.429688 32.066406 C 30.429688 32.800781 31.019531 33.390625 31.753906 33.390625 C 32.484375 33.390625 33.074219 32.800781 33.074219 32.066406 L 33.074219 31.074219 C 33.074219 31.808594 32.484375 32.398438 31.753906 32.398438 C 31.019531 32.398438 30.429688 31.808594 30.429688 31.074219 Z M 19.855469 31.578125 C 19.847656 31.738281 19.84375 31.902344 19.84375 32.066406 C 19.84375 38.664062 25.15625 43.972656 31.753906 43.972656 C 38.351562 43.972656 43.660156 38.664062 43.660156 32.066406 C 43.660156 31.902344 43.65625 31.738281 43.648438 31.578125 C 43.386719 37.9375 38.179688 42.980469 31.753906 42.980469 C 25.324219 42.980469 20.117188 37.9375 19.855469 31.578125 Z M 19.855469 31.578125 "/>
<path style="fill:none;stroke-width:11.338583;stroke-linecap:round;stroke-linejoin:round;stroke:rgb(12.941177%,12.941177%,12.941177%);stroke-opacity:1;stroke-miterlimit:4;" d="M 960.026483 495.070859 C 937.823877 495.070859 919.990934 512.903803 919.990934 535.106408 L 919.990934 935.107601 C 919.990934 957.310207 937.823877 975.14315 960.026483 975.14315 C 982.110989 975.14315 999.943933 957.310207 999.943933 935.107601 L 999.943933 535.106408 C 999.943933 512.903803 982.110989 495.070859 960.026483 495.070859 Z M 879.955385 583.99938 C 719.340793 620.137663 599.94274 763.155509 599.94274 935.107601 C 599.94274 1134.576752 760.557332 1295.073245 960.026483 1295.073245 C 1159.495634 1295.073245 1319.992127 1134.576752 1319.992127 935.107601 C 1319.992127 763.155509 1200.712172 620.137663 1039.979482 583.99938 L 1039.979482 666.668655 C 1155.952665 700.917355 1240.039128 807.796917 1240.039128 935.107601 C 1240.039128 1090.289641 1115.090423 1215.120246 960.026483 1215.120246 C 804.844443 1215.120246 680.013838 1090.289641 680.013838 935.107601 C 680.013838 807.796917 764.100301 700.917355 879.955385 666.668655 Z M 879.955385 583.99938 " transform="matrix(0.0330761,0,0,0.0330761,0,0)"/>
</g>
</svg>
